Newaita-dark/apps/16/enpass.svg

<?xml version="1.0" encoding="UTF-8"?>
<svg xmlns="http://www.w3.org/2000/svg" xmlns:xlink="http://www.w3.org/1999/xlink" width="16pt" height="16pt" viewBox="0 0 16 16" version="1.1">
<defs>
<radialGradient id="radial0" gradientUnits="userSpaceOnUse" cx="450.908936" cy="189.579361" fx="450.908936" fy="189.579361" r="21.166656" gradientTransform="matrix(0.0000000870852,-0.0390662,-0.0703192,-0.0000000507693,24.411521,31.797665)">
<stop offset="0" style="stop-color:rgb(0%,0%,0%);stop-opacity:0.313725;"/>
<stop offset="0.222222" style="stop-color:rgb(0%,0%,0%);stop-opacity:0.27451;"/>
<stop offset="1" style="stop-color:rgb(0%,0%,0%);stop-opacity:0;"/>
</radialGradient>
<radialGradient id="radial1" gradientUnits="userSpaceOnUse" cx="450.908936" cy="189.579361" fx="450.908936" fy="189.579361" r="21.166656" gradientTransform="matrix(-0.0000000870852,0.0390662,0.0703192,0.0000000507693,-8.535003,-3.76374)">
<stop offset="0" style="stop-color:rgb(0%,0%,0%);stop-opacity:0.313725;"/>
<stop offset="0.222222" style="stop-color:rgb(0%,0%,0%);stop-opacity:0.27451;"/>
<stop offset="1" style="stop-color:rgb(0%,0%,0%);stop-opacity:0;"/>
</radialGradient>
<radialGradient id="radial2" gradientUnits="userSpaceOnUse" cx="450.908936" cy="189.579361" fx="450.908936" fy="189.579361" r="21.166656" gradientTransform="matrix(-0.0000000870852,-0.0390662,0.0703192,-0.0000000507693,-8.535003,31.797665)">
<stop offset="0" style="stop-color:rgb(0%,0%,0%);stop-opacity:0.313725;"/>
<stop offset="0.222222" style="stop-color:rgb(0%,0%,0%);stop-opacity:0.27451;"/>
<stop offset="1" style="stop-color:rgb(0%,0%,0%);stop-opacity:0;"/>
</radialGradient>
<radialGradient id="radial3" gradientUnits="userSpaceOnUse" cx="450.908936" cy="189.579361" fx="450.908936" fy="189.579361" r="21.166656" gradientTransform="matrix(0.0000000870852,0.0390662,-0.0703192,0.0000000507693,24.41152,-3.763741)">
<stop offset="0" style="stop-color:rgb(0%,0%,0%);stop-opacity:0.313725;"/>
<stop offset="0.222222" style="stop-color:rgb(0%,0%,0%);stop-opacity:0.27451;"/>
<stop offset="1" style="stop-color:rgb(0%,0%,0%);stop-opacity:0;"/>
</radialGradient>
<linearGradient id="linear0" gradientUnits="userSpaceOnUse" x1="255.322968" y1="228.178589" x2="255.323044" y2="254.666656" gradientTransform="matrix(0.1336,0,0,0.0249743,-26.172998,8.318354)">
<stop offset="0" style="stop-color:rgb(0%,0%,0%);stop-opacity:0.27451;"/>
<stop offset="1" style="stop-color:rgb(0%,0%,0%);stop-opacity:0;"/>
</linearGradient>
<linearGradient id="linear1" gradientUnits="userSpaceOnUse" x1="254" y1="233.5" x2="254" y2="21.833334" gradientTransform="matrix(0.031253,0,0,0.031253,0,6.719392)">
<stop offset="0" style="stop-color:rgb(100%,65.490196%,14.901961%);stop-opacity:1;"/>
<stop offset="1" style="stop-color:rgb(100%,71.764706%,30.196078%);stop-opacity:1;"/>
</linearGradient>
<linearGradient id="linear2" gradientUnits="userSpaceOnUse" x1="960" y1="1695.118164" x2="960" y2="175.118118" gradientTransform="matrix(0.00826902,0,0,0.00826902,0,0)">
<stop offset="0" style="stop-color:rgb(74.117647%,74.117647%,74.117647%);stop-opacity:1;"/>
<stop offset="1" style="stop-color:rgb(93.333333%,93.333333%,93.333333%);stop-opacity:1;"/>
</linearGradient>
<linearGradient id="linear3" gradientUnits="userSpaceOnUse" x1="125.5" y1="127.666672" x2="181.416672" y2="127.666672" >
<stop offset="0" style="stop-color:rgb(100%,65.490196%,14.901961%);stop-opacity:1;"/>
<stop offset="0.510345" style="stop-color:rgb(100%,71.764706%,30.196078%);stop-opacity:1;"/>
<stop offset="1" style="stop-color:rgb(100%,65.490196%,14.901961%);stop-opacity:1;"/>
</linearGradient>
<linearGradient id="linear4" gradientUnits="userSpaceOnUse" x1="326.583344" y1="127.666672" x2="382.499939" y2="127.666672" >
<stop offset="0" style="stop-color:rgb(100%,65.490196%,14.901961%);stop-opacity:1;"/>
<stop offset="0.510345" style="stop-color:rgb(100%,71.764706%,30.196078%);stop-opacity:1;"/>
<stop offset="1" style="stop-color:rgb(100%,65.490196%,14.901961%);stop-opacity:1;"/>
</linearGradient>
</defs>
<g id="surface1">
<path style=" stroke:none;fill-rule:nonzero;fill:url(#radial0);" d="M 11.246094 14.015625 L 12.570312 14.015625 L 12.570312 13.355469 L 11.246094 13.355469 Z M 11.246094 14.015625 "/>
<path style=" stroke:none;fill-rule:nonzero;fill:url(#radial1);" d="M 4.628906 14.015625 L 3.308594 14.015625 L 3.308594 14.679688 L 4.628906 14.679688 Z M 4.628906 14.015625 "/>
<path style=" stroke:none;fill-rule:nonzero;fill:url(#radial2);" d="M 4.628906 14.015625 L 3.308594 14.015625 L 3.308594 13.355469 L 4.628906 13.355469 Z M 4.628906 14.015625 "/>
<path style=" stroke:none;fill-rule:nonzero;fill:url(#radial3);" d="M 11.246094 14.015625 L 12.570312 14.015625 L 12.570312 14.679688 L 11.246094 14.679688 Z M 11.246094 14.015625 "/>
<path style=" stroke:none;fill-rule:nonzero;fill:url(#linear0);" d="M 4.628906 14.019531 L 11.246094 14.019531 L 11.246094 14.679688 L 4.628906 14.679688 Z M 4.628906 14.019531 "/>
<path style=" stroke:none;fill-rule:nonzero;fill:url(#linear1);" d="M 3.96875 7.402344 L 11.90625 7.402344 C 12.273438 7.402344 12.570312 7.699219 12.570312 8.0625 L 12.570312 13.355469 C 12.570312 13.722656 12.273438 14.015625 11.90625 14.015625 L 3.96875 14.015625 C 3.605469 14.015625 3.308594 13.722656 3.308594 13.355469 L 3.308594 8.0625 C 3.308594 7.699219 3.605469 7.402344 3.96875 7.402344 Z M 3.96875 7.402344 "/>
<path style=" stroke:none;fill-rule:nonzero;fill:url(#linear2);" d="M 7.9375 1.449219 C 5.921875 1.449219 4.300781 3.070312 4.300781 5.085938 L 4.300781 7.402344 L 5.292969 7.402344 L 5.292969 5.085938 C 5.292969 3.621094 6.472656 2.441406 7.9375 2.441406 C 9.402344 2.441406 10.585938 3.621094 10.585938 5.085938 L 10.585938 7.402344 L 11.578125 7.402344 L 11.578125 5.085938 C 11.578125 3.070312 9.953125 1.449219 7.9375 1.449219 Z M 7.9375 1.449219 "/>
<path style=" stroke:none;fill-rule:nonzero;fill:rgb(81.176472%,81.176472%,81.176472%);fill-opacity:1;" d="M 7.9375 1.449219 C 5.921875 1.449219 4.300781 3.070312 4.300781 5.085938 L 4.300781 7.402344 L 5.292969 7.402344 L 5.292969 5.085938 C 5.292969 3.621094 6.472656 2.441406 7.9375 2.441406 C 9.402344 2.441406 10.585938 3.621094 10.585938 5.085938 L 10.585938 7.402344 L 11.578125 7.402344 L 11.578125 5.085938 C 11.578125 3.070312 9.953125 1.449219 7.9375 1.449219 Z M 7.9375 1.449219 "/>
<path style=" stroke:none;fill-rule:nonzero;fill:rgb(100%,100%,100%);fill-opacity:0.784314;" d="M 7.9375 1.449219 C 5.921875 1.449219 4.300781 3.070312 4.300781 5.085938 L 4.300781 5.25 C 4.300781 3.234375 5.921875 1.613281 7.9375 1.613281 C 9.953125 1.613281 11.578125 3.234375 11.578125 5.25 L 11.578125 5.085938 C 11.578125 3.070312 9.953125 1.449219 7.9375 1.449219 Z M 7.9375 1.449219 "/>
<path style=" stroke:none;fill-rule:nonzero;fill:rgb(0%,0%,0%);fill-opacity:0.235294;" d="M 7.9375 2.273438 C 6.472656 2.273438 5.292969 3.457031 5.292969 4.921875 L 5.292969 5.085938 C 5.292969 3.621094 6.472656 2.441406 7.9375 2.441406 C 9.402344 2.441406 10.585938 3.621094 10.585938 5.085938 L 10.585938 4.921875 C 10.585938 3.457031 9.402344 2.273438 7.9375 2.273438 Z M 4.300781 7.238281 L 4.300781 7.402344 L 5.292969 7.402344 L 5.292969 7.238281 Z M 10.585938 7.238281 L 10.585938 7.402344 L 11.578125 7.402344 L 11.578125 7.238281 Z M 10.585938 7.238281 "/>
<path style="fill:none;stroke-width:11.338583;stroke-linecap:round;stroke-linejoin:round;stroke:rgb(12.941177%,12.941177%,12.941177%);stroke-opacity:1;stroke-miterlimit:4;" d="M 959.908384 175.258863 C 716.152121 175.258863 520.10784 371.303145 520.10784 615.059407 L 520.10784 895.190151 L 640.096388 895.190151 L 640.096388 615.059407 C 640.096388 437.910961 782.759937 295.247411 959.908384 295.247411 C 1137.056831 295.247411 1280.192776 437.910961 1280.192776 615.059407 L 1280.192776 895.190151 L 1400.181324 895.190151 L 1400.181324 615.059407 C 1400.181324 371.303145 1203.664647 175.258863 959.908384 175.258863 Z M 959.908384 175.258863 " transform="matrix(0.00826902,0,0,0.00826902,0,0)"/>
<path style="fill:none;stroke-width:3;stroke-linecap:round;stroke-linejoin:round;stroke:rgb(12.941177%,12.941177%,12.941177%);stroke-opacity:1;stroke-miterlimit:4;" d="M 126.987873 21.852382 L 179.857824 21.852382 L 179.857824 233.457174 L 126.987873 233.457174 Z M 126.987873 21.852382 " transform="matrix(0.031253,0,0,0.031253,0,6.719392)"/>
<path style="fill-rule:nonzero;fill:url(#linear3);stroke-width:3;stroke-linecap:round;stroke-linejoin:round;stroke:rgb(12.941177%,12.941177%,12.941177%);stroke-opacity:1;stroke-miterlimit:4;" d="M 126.987873 21.852382 L 179.857824 21.852382 L 179.857824 233.457174 L 126.987873 233.457174 Z M 126.987873 21.852382 " transform="matrix(0.031253,0,0,0.031253,0,6.719392)"/>
<path style="fill:none;stroke-width:3;stroke-linecap:round;stroke-linejoin:round;stroke:rgb(12.941177%,12.941177%,12.941177%);stroke-opacity:1;stroke-miterlimit:4;" d="M 328.093669 21.852382 L 380.96362 21.852382 L 380.96362 233.457174 L 328.093669 233.457174 Z M 328.093669 21.852382 " transform="matrix(0.031253,0,0,0.031253,0,6.719392)"/>
<path style="fill-rule:nonzero;fill:url(#linear4);stroke-width:3;stroke-linecap:round;stroke-linejoin:round;stroke:rgb(12.941177%,12.941177%,12.941177%);stroke-opacity:1;stroke-miterlimit:4;" d="M 328.093669 21.852382 L 380.96362 21.852382 L 380.96362 233.457174 L 328.093669 233.457174 Z M 328.093669 21.852382 " transform="matrix(0.031253,0,0,0.031253,0,6.719392)"/>
<path style=" stroke:none;fill-rule:nonzero;fill:rgb(0%,0%,0%);fill-opacity:0.235294;" d="M 3.96875 14.015625 C 3.601562 14.015625 3.308594 13.722656 3.308594 13.355469 L 3.308594 13.023438 C 3.308594 13.390625 3.601562 13.6875 3.96875 13.6875 L 11.90625 13.6875 C 12.273438 13.6875 12.570312 13.390625 12.570312 13.023438 L 12.570312 13.355469 C 12.570312 13.722656 12.273438 14.015625 11.90625 14.015625 Z M 3.96875 14.015625 "/>
<path style=" stroke:none;fill-rule:nonzero;fill:rgb(100%,100%,100%);fill-opacity:0.392157;" d="M 3.96875 7.402344 C 3.601562 7.402344 3.308594 7.695312 3.308594 8.0625 L 3.308594 8.394531 C 3.308594 8.027344 3.601562 7.734375 3.96875 7.734375 L 11.90625 7.734375 C 12.273438 7.734375 12.570312 8.027344 12.570312 8.394531 L 12.570312 8.0625 C 12.570312 7.695312 12.273438 7.402344 11.90625 7.402344 Z M 3.96875 7.402344 "/>
<path style=" stroke:none;fill-rule:nonzero;fill:rgb(12.941177%,12.941177%,12.941177%);fill-opacity:1;" d="M 3.96875 7.355469 C 3.578125 7.355469 3.261719 7.671875 3.261719 8.0625 L 3.261719 13.355469 C 3.261719 13.746094 3.578125 14.0625 3.96875 14.0625 L 11.90625 14.0625 C 12.300781 14.0625 12.617188 13.746094 12.617188 13.355469 L 12.617188 8.0625 C 12.617188 7.671875 12.300781 7.355469 11.90625 7.355469 Z M 3.96875 7.449219 L 11.90625 7.449219 C 12.25 7.449219 12.523438 7.722656 12.523438 8.0625 L 12.523438 13.355469 C 12.523438 13.695312 12.25 13.96875 11.90625 13.96875 L 3.96875 13.96875 C 3.628906 13.96875 3.355469 13.695312 3.355469 13.355469 L 3.355469 8.0625 C 3.355469 7.722656 3.628906 7.449219 3.96875 7.449219 Z M 3.96875 7.449219 "/>
</g>
</svg>

<svg xmlns="http://www.w3.org/2000/svg" width="16pt" height="16pt" viewBox="0 0 16 16"><defs><radialGradient id="a" gradientUnits="userSpaceOnUse" cx="450.909" cy="189.579" fx="450.909" fy="189.579" r="21.167" gradientTransform="matrix(0 -.03907 -.07032 0 24.412 31.798)"><stop offset="0" stop-opacity=".314"/><stop offset=".222" stop-opacity=".275"/><stop offset="1" stop-opacity="0"/></radialGradient><radialGradient id="b" gradientUnits="userSpaceOnUse" cx="450.909" cy="189.579" fx="450.909" fy="189.579" r="21.167" gradientTransform="matrix(0 .03907 .07032 0 -8.535 -3.764)"><stop offset="0" stop-opacity=".314"/><stop offset=".222" stop-opacity=".275"/><stop offset="1" stop-opacity="0"/></radialGradient><radialGradient id="c" gradientUnits="userSpaceOnUse" cx="450.909" cy="189.579" fx="450.909" fy="189.579" r="21.167" gradientTransform="matrix(0 -.03907 .07032 0 -8.535 31.798)"><stop offset="0" stop-opacity=".314"/><stop offset=".222" stop-opacity=".275"/><stop offset="1" stop-opacity="0"/></radialGradient><radialGradient id="d" gradientUnits="userSpaceOnUse" cx="450.909" cy="189.579" fx="450.909" fy="189.579" r="21.167" gradientTransform="matrix(0 .03907 -.07032 0 24.412 -3.764)"><stop offset="0" stop-opacity=".314"/><stop offset=".222" stop-opacity=".275"/><stop offset="1" stop-opacity="0"/></radialGradient><linearGradient id="e" gradientUnits="userSpaceOnUse" x1="255.323" y1="228.179" x2="255.323" y2="254.667" gradientTransform="matrix(.1336 0 0 .02497 -26.173 8.318)"><stop offset="0" stop-opacity=".275"/><stop offset="1" stop-opacity="0"/></linearGradient><linearGradient id="f" gradientUnits="userSpaceOnUse" x1="254" y1="233.5" x2="254" y2="21.833" gradientTransform="matrix(.03125 0 0 .03125 0 6.72)"><stop offset="0" stop-color="#ffa726"/><stop offset="1" stop-color="#ffb74d"/></linearGradient><linearGradient id="g" gradientUnits="userSpaceOnUse" x1="960" y1="1695.118" x2="960" y2="175.118" gradientTransform="rotate(.882) scale(.00827)"><stop offset="0" stop-color="#bdbdbd"/><stop offset="1" stop-color="#eee"/></linearGradient><linearGradient id="h" gradientUnits="userSpaceOnUse" x1="125.5" y1="127.667" x2="181.417" y2="127.667"><stop offset="0" stop-color="#ffa726"/><stop offset=".51" stop-color="#ffb74d"/><stop offset="1" stop-color="#ffa726"/></linearGradient><linearGradient id="i" gradientUnits="userSpaceOnUse" x1="326.583" y1="127.667" x2="382.5" y2="127.667"><stop offset="0" stop-color="#ffa726"/><stop offset=".51" stop-color="#ffb74d"/><stop offset="1" stop-color="#ffa726"/></linearGradient></defs><path d="M11.246 14.016h1.324v-.66h-1.324zm0 0" fill="url(#a)"/><path d="M4.629 14.016h-1.32v.664h1.32zm0 0" fill="url(#b)"/><path d="M4.629 14.016h-1.32v-.66h1.32zm0 0" fill="url(#c)"/><path d="M11.246 14.016h1.324v.664h-1.324zm0 0" fill="url(#d)"/><path d="M4.629 14.02h6.617v.66H4.63zm0 0" fill="url(#e)"/><path d="M3.969 7.402h7.937c.367 0 .664.297.664.66v5.293a.66.66 0 0 1-.664.66H3.97a.66.66 0 0 1-.66-.66V8.062c0-.363.296-.66.66-.66zm0 0" fill="url(#f)"/><path d="M7.938 1.45A3.628 3.628 0 0 0 4.3 5.085v2.316h.992V5.086A2.639 2.639 0 0 1 7.937 2.44a2.642 2.642 0 0 1 2.649 2.645v2.316h.992V5.086a3.631 3.631 0 0 0-3.64-3.637zm0 0" fill="url(#g)"/><path d="M7.938 1.45A3.628 3.628 0 0 0 4.3 5.085v2.316h.992V5.086A2.639 2.639 0 0 1 7.937 2.44a2.642 2.642 0 0 1 2.649 2.645v2.316h.992V5.086a3.631 3.631 0 0 0-3.64-3.637zm0 0" fill="#cfcfcf"/><path d="M7.938 1.45A3.628 3.628 0 0 0 4.3 5.085v.164a3.628 3.628 0 0 1 3.636-3.637 3.631 3.631 0 0 1 3.641 3.637v-.164a3.631 3.631 0 0 0-3.64-3.637zm0 0" fill="#fff" fill-opacity=".784"/><path d="M7.938 2.273a2.642 2.642 0 0 0-2.645 2.649v.164A2.639 2.639 0 0 1 7.937 2.44a2.642 2.642 0 0 1 2.649 2.645v-.164a2.646 2.646 0 0 0-2.649-2.649zM4.3 7.238v.164h.992v-.164zm6.285 0v.164h.992v-.164zm0 0" fill-opacity=".235"/><path d="M7.938 1.45A3.628 3.628 0 0 0 4.3 5.085v2.316h.992V5.086A2.639 2.639 0 0 1 7.938 2.44a2.642 2.642 0 0 1 2.648 2.645v2.316h.992V5.086a3.631 3.631 0 0 0-3.64-3.637zm0 0" fill="none" stroke-width=".09377353" stroke-linecap="round" stroke-linejoin="round" stroke="#212121"/><path d="M3.969 7.402H5.62v6.614H3.97zm0 0" fill="none" stroke-width=".09375" stroke-linecap="round" stroke-linejoin="round" stroke="#212121"/><path d="M126.988 21.852h52.87v211.605h-52.87zm0 0" transform="matrix(.03125 0 0 .03125 0 6.72)" fill="url(#h)" stroke-width="3" stroke-linecap="round" stroke-linejoin="round" stroke="#212121"/><path d="M10.254 7.402h1.652v6.614h-1.652zm0 0" fill="none" stroke-width=".09375" stroke-linecap="round" stroke-linejoin="round" stroke="#212121"/><path d="M328.094 21.852h52.87v211.605h-52.87zm0 0" transform="matrix(.03125 0 0 .03125 0 6.72)" fill="url(#i)" stroke-width="3" stroke-linecap="round" stroke-linejoin="round" stroke="#212121"/><path d="M3.969 14.016a.657.657 0 0 1-.66-.66v-.333a.66.66 0 0 0 .66.665h7.937a.664.664 0 0 0 .664-.665v.332a.66.66 0 0 1-.664.66zm0 0" fill-opacity=".235"/><path d="M3.969 7.402a.657.657 0 0 0-.66.66v.333c0-.368.293-.66.66-.66h7.937a.66.66 0 0 1 .664.66v-.332a.66.66 0 0 0-.664-.66zm0 0" fill="#fff" fill-opacity=".392"/><path d="M3.969 7.355a.707.707 0 0 0-.707.707v5.293c0 .391.316.707.707.707h7.937c.395 0 .711-.316.711-.707V8.062a.708.708 0 0 0-.71-.707zm0 .094h7.937c.344 0 .617.274.617.614v5.292c0 .34-.273.614-.617.614H3.97a.612.612 0 0 1-.614-.614V8.062c0-.34.274-.613.614-.613zm0 0" fill="#212121"/></svg>
